X: 1888
T: Uca Dağların Başında
C: Mustafa Hoşsu
O: Turkey
F: http://compmusic.upf.edu/node/140
N: gerdaniye--turku--turkaksagi--uca_daglarin--erzurum
N: makam= gerdaniye
N: form= turku
N: usul= turkaksagi = 5/8
M: 5/8
L: 1/16
K: C _2/4B ^3/4f  
Q: 1/4=150
%%MIDI tuningsystem comma53
A2AG dBc2 {d}cB | A2 AGdB c2{d}cB  | \
w:  ARANAĞME  |   | 
Aed2 Bdc2 {d}cB | 
w:   | 
B2 {c}BAAd A4  | A2AG dBc2 {d}cB | A2 AGdB c2{d}cB  | 
w:   |  ARANAĞME  |   | 
Aed2 Bdc2 {d}cB | B2 {c}BAAd A4  | z26  | \
w:   |   |  | 
gfg3fg3f{f}afg3ff3eege3d | 
w:  U *  ca  *  dağ *  *  la *  rın  *  ba *  şın *  da    | 
{d}afg3fg3f{f}afg3ff3ee2gf2e  | z8-z2  | \
w:  *  Kar *  lı  *  dağ *  *  la *  rın  *  ba *  şın  |  | 
e2ee e2e2 ee | 
w:  da    | 
e2 eee2 e2ee  | fga2 gfe2 ed | ag a2gf e4  | 
w:  SAZ  |   |   | 
fga2 gfe2 ed | ag a2gf e4  | z26  | a2a4e4ege4e2e2edge2d | 
w:   |   |  |  Tek_ at lı  gez *  di ğin  var  mı    | 
z8-z2 | e3ded ge2d  | e3d edge2d | d3cdc ed2B  | 
w:  |  Le  le  le  *  *  *  le   |  Le  le  le  *  *  *  le   |  le  le  *  *  *  *  le   | 
c3B cBdc2B | B3ABA cB2A  | A8-A2 | g2 g4 d2c/B/A  | 
w:  le  le  le  *  *  *  le   |  le  le  le   |  can    |  Tek_ at lı   | 
z26  | g2g4c4BAA4A2AAA2A2AA | |


